assets/src/images/icons/ic_dash.svg

<svg width="50" height="50" viewBox="0 0 50 50" fill="none" xmlns="http://www.w3.org/2000/svg">
<path fill-rule="evenodd" clip-rule="evenodd" d="M25 0C11.2345 0 0 11.2353 0 25C0 38.7655 11.2353 50 25 50C38.7655 50 50 38.7647 50 25C50 11.2345 38.7647 0 25 0ZM25 47.0703C12.8304 47.0703 2.92969 37.1696 2.92969 25C2.92969 12.8304 12.8304 2.92969 25 2.92969C37.1696 2.92969 47.0703 12.8304 47.0703 25C47.0703 37.1696 37.1696 47.0703 25 47.0703ZM17.6758 30.8594C17.6758 31.6684 17.0199 32.3242 16.2109 32.3242C15.4019 32.3242 14.7461 31.6684 14.7461 30.8594C14.7461 30.0504 15.4019 29.3945 16.2109 29.3945C17.0199 29.3945 17.6758 30.0504 17.6758 30.8594ZM35.2539 30.8594C35.2539 31.6684 34.5981 32.3242 33.7891 32.3242C32.9801 32.3242 32.3242 31.6684 32.3242 30.8594C32.3242 30.0504 32.9801 29.3945 33.7891 29.3945C34.5981 29.3945 35.2539 30.0504 35.2539 30.8594ZM5.95703 25C5.95703 14.5064 14.4878 5.95703 25 5.95703C35.5077 5.95703 44.043 14.5106 44.043 25C44.043 30.3991 41.7297 35.5685 37.6964 39.1825C37.0943 39.7219 36.1684 39.6723 35.6278 39.0691C35.088 38.4667 35.1388 37.5406 35.7412 37.0007C38.7882 34.2704 40.674 30.4828 41.0446 26.4551H39.6484C38.8395 26.4551 38.1836 25.809 38.1836 25C38.1836 24.191 38.8395 23.5352 39.6484 23.5352H41.046C40.7431 20.1904 39.4145 17.1375 37.377 14.6946L36.3937 15.6778C35.8217 16.2499 34.8941 16.2498 34.3222 15.6778C33.7501 15.1058 33.7501 14.1783 34.3222 13.6063L35.3054 12.623C32.8625 10.5855 29.8096 9.25684 26.4648 8.954V10.3516C26.4648 11.1605 25.809 11.8164 25 11.8164C24.191 11.8164 23.5352 11.1605 23.5352 10.3516V8.954C20.1904 9.25684 17.1375 10.5855 14.6946 12.623L15.6778 13.6063C16.2499 14.1783 16.2499 15.1058 15.6778 15.6778C15.1058 16.2499 14.1782 16.2498 13.6063 15.6778L12.623 14.6946C10.5855 17.1375 9.25693 20.1904 8.954 23.5352H10.3516C11.1605 23.5352 11.8164 24.191 11.8164 25C11.8164 25.809 11.1605 26.4648 10.3516 26.4648H8.95537C9.32598 30.4926 11.2118 34.2704 14.2589 37.0008C14.8613 37.5406 14.9121 38.4667 14.3723 39.0692C13.8323 39.6718 12.9062 39.7225 12.3037 39.1826C8.27031 35.5685 5.95703 30.3991 5.95703 25ZM26.4648 20.8574V16.2109C26.4648 15.402 25.809 14.7461 25 14.7461C24.191 14.7461 23.5352 15.402 23.5352 16.2109V20.8574C21.8302 21.4621 20.6055 23.0903 20.6055 25C20.6055 27.4231 22.5769 29.3945 25 29.3945C27.4231 29.3945 29.3945 27.4231 29.3945 25C29.3945 23.0903 28.1698 21.4621 26.4648 20.8574ZM25 26.4648C24.1923 26.4648 23.5352 25.8077 23.5352 25C23.5352 24.1923 24.1923 23.5352 25 23.5352C25.8077 23.5352 26.4648 24.1923 26.4648 25C26.4648 25.8077 25.8077 26.4648 25 26.4648ZM17.6758 33.7891C17.6758 32.9801 18.3316 32.3242 19.1406 32.3242H30.8594C31.6684 32.3242 32.3242 32.9801 32.3242 33.7891V39.6484C32.3242 40.4574 31.6684 41.1133 30.8594 41.1133H19.1406C18.3316 41.1133 17.6758 40.4574 17.6758 39.6484V33.7891ZM20.6055 35.2539V38.1836H29.3945V35.2539H20.6055Z" fill="#0EF5FF"/>
</svg>

<svg width="50" height="50" viewBox="0 0 50 50" fill="none" xmlns="http://www.w3.org/2000/svg"><path fill-rule="evenodd" clip-rule="evenodd" d="M25 0C11.235 0 0 11.235 0 25c0 13.766 11.235 25 25 25 13.766 0 25-11.235 25-25S38.765 0 25 0zm0 47.07c-12.17 0-22.07-9.9-22.07-22.07S12.83 2.93 25 2.93 47.07 12.83 47.07 25 37.17 47.07 25 47.07zm-7.324-16.21a1.465 1.465 0 11-2.93 0 1.465 1.465 0 012.93 0zm17.578 0a1.465 1.465 0 11-2.93 0 1.465 1.465 0 012.93 0zM5.957 25c0-10.494 8.53-19.043 19.043-19.043 10.508 0 19.043 8.554 19.043 19.043 0 5.4-2.313 10.569-6.347 14.182a1.465 1.465 0 11-1.955-2.181 16.175 16.175 0 005.304-10.546h-1.397A1.457 1.457 0 0138.184 25c0-.809.656-1.465 1.464-1.465h1.398a16.041 16.041 0 00-3.669-8.84l-.983.983a1.465 1.465 0 11-2.072-2.072l.983-.983a16.04 16.04 0 00-8.84-3.669v1.398a1.465 1.465 0 01-2.93 0V8.954a16.04 16.04 0 00-8.84 3.669l.983.983a1.465 1.465 0 11-2.072 2.072l-.983-.983a16.042 16.042 0 00-3.669 8.84h1.398a1.465 1.465 0 010 2.93H8.955A16.152 16.152 0 0014.26 37a1.465 1.465 0 01-1.955 2.182A19.073 19.073 0 015.957 25zm20.508-4.143v-4.646a1.465 1.465 0 00-2.93 0v4.646A4.401 4.401 0 0020.605 25 4.4 4.4 0 0025 29.395 4.4 4.4 0 0029.395 25a4.401 4.401 0 00-2.93-4.143zM25 26.465A1.466 1.466 0 0123.535 25c0-.808.657-1.465 1.465-1.465s1.465.657 1.465 1.465-.657 1.465-1.465 1.465zm-7.324 7.324c0-.809.656-1.465 1.465-1.465h11.718c.81 0 1.465.656 1.465 1.465v5.86c0 .808-.656 1.464-1.465 1.464H19.141a1.465 1.465 0 01-1.465-1.465V33.79zm2.93 1.465v2.93h8.788v-2.93h-8.788z" fill="#0EF5FF"/></svg>
